X:221
T: Man gan niu, 1)
N: C0351
O: China, Anhui, Anqing
S: III, 578]
N: Wenig Verzierungen, Fermaten, Glissandi.
R: Shange, Manganniu. Biaoda aiqing]
M: 2/4
L: 1/16
K: D
A2A4Bd | d2e6 | e2B2d4 | BA3-A2AB
e2B2B2B2 | d8 | B2BAA4- | A8
A2A4Bd | d2e6 | e2B2d4 | BA3-A2AB
e2B2B2B2 | d8 | B2BAA4- | A8
A2A4Bd | d2e6 | e2B2d4 | BA3-A2AB
e2B2B2B2 | d8 | B2BAA4- | A8 | B8

